src/images/icons/contact-icon-hh.svg

<svg xmlns="http://www.w3.org/2000/svg" 
xmlns:xlink="http://www.w3.org/1999/xlink" 
id="eqWCGBFEpSg1" 
width="30" 
heigth="30"
viewBox="0 0 20 19.98" 
shape-rendering="geometricPrecision" 
text-rendering="geometricPrecision">
<path 
d="M10,0C4.477153,0,0,4.477153,0,10s4.477153,10,10,10s10-4.477153,10-10-4.477153-10-10-10ZM9.61,14.3h-1.61L8,11c.020883-.415459-.009343-.831911-.09-1.24-.058749-.170757-.170961-.318036-.32-.42-.177437-.106607-.383584-.155523-.59-.14-.251165-.004448-.498086.065108-.71.2-.220006.138714-.38316.351525-.46.6-.11601.382098-.166722.78103-.15,1.18v3.11h-1.6v-8.8h1.61v3.4c.450752-.566153,1.136337-.894202,1.86-.89.344765-.004854.686311.066871,1,.21.268455.115438.50017.302193.67.54.149418.221078.254683.468961.31.73.067523.406317.094323.818359.08,1.23Zm6.34,0h-1.61v-3.3c.020883-.415459-.009343-.831911-.09-1.24-.058749-.170757-.170961-.318036-.32-.42-.172324-.111609-.374826-.167471-.58-.16-.251165-.004448-.498086.065108-.71.2-.21712.141852-.379381.353497-.46.6-.128424.386705-.189313.792634-.18,1.2v3.12h-1.58v-8.81h1.58v3.4c.457241-.574533,1.155851-.903508,1.89-.89.344765-.004854.686311.066871,1,.21.268455.115438.50017.302193.67.54.149418.221078.254683.468961.31.73.081677.391535.125214.790065.13,1.19v3.63Z" 
fill-rule="evenodd"/>
</svg>

<svg id="Слой_1" data-name="Слой 1" xmlns="http://www.w3.org/2000/svg" viewBox="0 0 20 19.98"><defs><style>.cls-1{fill:#110e0d;fill-rule:evenodd;}</style></defs><title>icons</title><path class="cls-1" d="M10,0A10,10,0,1,0,20,10,10,10,0,0,0,10,0ZM9.61,14.3H8V11a5.08,5.08,0,0,0-.09-1.24.84.84,0,0,0-.32-.42A1,1,0,0,0,7,9.2a1.28,1.28,0,0,0-.71.2,1.09,1.09,0,0,0-.46.6,3.55,3.55,0,0,0-.15,1.18v3.11H4.08V5.49H5.69v3.4A2.36,2.36,0,0,1,7.55,8a2.33,2.33,0,0,1,1,.21,1.6,1.6,0,0,1,.67.54,2.07,2.07,0,0,1,.31.73,6.19,6.19,0,0,1,.08,1.23Zm6.34,0H14.34V11a5.08,5.08,0,0,0-.09-1.24.84.84,0,0,0-.32-.42,1,1,0,0,0-.58-.16,1.28,1.28,0,0,0-.71.2,1.14,1.14,0,0,0-.46.6A3.55,3.55,0,0,0,12,11.18V14.3H10.42V5.49H12v3.4A2.36,2.36,0,0,1,13.89,8a2.33,2.33,0,0,1,1,.21,1.6,1.6,0,0,1,.67.54,2.07,2.07,0,0,1,.31.73A6.19,6.19,0,0,1,16,10.67V14.3Z"/></svg>
